X: 38297
T: St. Patrick's An Dro
R: polka
M: 2/4
K: Eminor
EFGF E2 B2|G2 E2 F3 B|1 A>BAG F2 EF|G2 EG F3:|
[2 ABAF G2 EF|G2 F2 E3||
E>FGA B2 cB|AF d>c B3 G|1 E2 GB A3 G|A>BAG F3:|

